!!!COM: Anonymous
!!!COS: Gaspar van Weerbeke
!!!OPR: Missa [sine nomine]
!!!OTL: Credo
!!!OMV: 3
!!!AGN: Mass
!!!SCT: Ano0207c
!!!SCA: Ano0207c
!!!voices: 4
**kern	**text	**kern	**text	**kern	**text	**kern	**text
*part4	*part4	*part3	*part3	*part2	*part2	*part1	*part1
*staff4	*staff4	*staff3	*staff3	*staff2	*staff2	*staff1	*staff1
*I"Bassus	*	*I"Tenor	*	*I"Altus	*	*I"Superius	*
*I'B	*	*I'T	*	*I'A	*	*I'S	*
*>Patrem[A]	*>Patrem[A]	*>Patrem[A]	*>Patrem[A]	*>Patrem[A]	*>Patrem[A]	*>Patrem[A]	*>Patrem[A]
*>EtIncarnatus[B]	*>EtIncarnatus[B]	*>EtIncarnatus[B]	*>EtIncarnatus[B]	*>EtIncarnatus[B]	*>EtIncarnatus[B]	*>EtIncarnatus[B]	*>EtIncarnatus[B]
*>Crucifixus[C]	*>Crucifixus[C]	*>Crucifixus[C]	*>Crucifixus[C]	*>Crucifixus[C]	*>Crucifixus[C]	*>Crucifixus[C]	*>Crucifixus[C]
*>A	*>A	*>A	*>A	*>A	*>A	*>A	*>A
*clefF4	*	*clefGv2	*	*clefGv2	*	*clefG2	*
*k[b-]	*	*k[b-]	*	*k[b-]	*	*k[b-]	*
*M2/2	*	*M2/2	*	*M2/2	*	*M2/2	*
*omet(C|)	*	*omet(C|)	*	*omet(C|)	*	*omet(C|)	*
!!section: Patrem
=1	=1	=1	=1	=1	=1	=1	=1
*	*	*	*	*lig	*	*	*
2r	.	1r	.	2G	Pa-	1r	.
*lig	*	*	*	*	*	*	*
2D	Pa-	.	.	2A	.	.	.
*	*	*	*	*Xlig	*	*	*
=2	=2	=2	=2	=2	=2	=2	=2
*	*	*lig	*	*	*	*	*
2E-i	.	2G	Pa-	8GL	-trem	2r	.
*Xlig	*	*	*	*	*	*	*
.	.	.	.	8A	.	.	.
.	.	.	.	8B-y	.	.	.
.	.	.	.	8cJ	.	.	.
*	*	*lig	*	*	*	*	*
*	*	*	*	*	*	*lig	*
2D	-trem	2A	.	2d	.	2a	Pa-
*	*	*Xlig	*	*	*	*	*
=3	=3	=3	=3	=3	=3	=3	=3
2GG	om-	4G	-trem	8B-yL	om-	2b-y	.
*	*	*	*	*	*	*Xlig	*
.	.	.	.	8c	.	.	.
.	.	4G	om-	8d	.	.	.
.	.	.	.	8eJ	.	.	.
4D	-ni-	8FL	-ni-	4f	.	2a	-trem
.	.	8G	.	.	.	.	.
4D	-pot-	8A	.	4f	-ni-	.	.
.	.	8B-yJ	.	.	.	.	.
=4	=4	=4	=4	=4	=4	=4	=4
4.AA	-en-	8cL	.	4e	-pot-	2a	om-
.	.	8dJ	.	.	.	.	.
.	.	4.e	-pot-	4.c	-en-	.	.
8BB-y	.	.	.	.	.	.	.
4C	.	.	.	.	.	4g	-ni-
.	.	8d	.	8B-y	.	.	.
4D	.	[4d	-en-	[4A	.	4f	-pot-
=5	=5	=5	=5	=5	=5	=5	=5
2E	.	4d]	.	4A]	.	2g	-en-
.	.	4c#i	.	4G	.	.	.
[2D	-tem,	[2d	-tem,	2A	-tem,	[2f	-tem,
!!LO:LB:g=original
=6	=6	=6	=6	=6	=6	=6	=6
4D]	.	4d]	.	4r	.	4f]	.
4D	fa-	4d	fa-	4f	fa-	4f	fa-
4D	-cto-	4d	-cto-	4f	-cto-	4a	-cto-
4D	-rem	4d	-rem	4f	-rem	4a	-rem
=7	=7	=7	=7	=7	=7	=7	=7
2GG	ce-	2d	ce-	2g	ce-	2b-y	ce-
4D	-li	4d	-li	4f	-li	4a	-li
4D	et	4d	et	4f	et	[4b-y	et
=8	=8	=8	=8	=8	=8	=8	=8
*lig	*	*	*	*	*	*	*
2F	ter-	4c	ter-	2f	ter-	4b-]	.
.	.	4A	.	.	.	2a	ter-
2G	.	2B-y	.	4.d	.	.	.
.	.	.	.	.	.	4g	.
.	.	.	.	8e	.	.	.
*Xlig	*	*	*	*	*	*	*
=9	=9	=9	=9	=9	=9	=9	=9
2F	-re,	1A	-re,	4.f	.	2a	-re,
.	.	.	.	8e	.	.	.
2F	vi-	.	.	2c	-re,	4r	.
.	.	.	.	.	.	4a	vi-
=10	=10	=10	=10	=10	=10	=10	=10
4F	-si-	4c	vi-	4.f	vi-	4a	-si-
4.F	-bi-	4c	-si-	.	.	4.a	-bi-
.	.	.	.	8f	-si-	.	.
.	.	4.c	-bi-	4f	-bi-	.	.
8F	-li-	.	.	.	.	8a	-li-
4F	-um	.	.	4c	-li-	4a	-um
.	.	8c	-li-	.	.	.	.
!!LO:LB:g=original
=11	=11	=11	=11	=11	=11	=11	=11
2C	om-	4c	-um	8e-iL	-um	4g	om-
.	.	.	.	8d	.	.	.
.	.	4e-X	om-	8c	.	4g	-ni-
.	.	.	.	8B-yJ	.	.	.
4D	-ni-	4d	-ni-	4A	.	4f	-um
[4GG	-um	[4d	-um	[4G	om-	[4b-y	et
=12	=12	=12	=12	=12	=12	=12	=12
4GG]	.	4d]	.	8GL]	.	4b-]	.
.	.	.	.	8GJ	-ni-	.	.
4F	et	4c	et	4A	-um	4a	in-
4G	in-	4B-y	in-	4B-y	et	4g	-vi-
[4F	-vi-	[4c	-vi-	4A	in-	[4a	-si-
=13	=13	=13	=13	=13	=13	=13	=13
4F]	.	4c]	.	4c	-vi-	4a]	.
4G	-si-	4B-y	-si-	4G	-si-	2g	-bi-
4D	-bi-	4A	-bi-	4.d	-bi-	.	.
4D	-li-	4A	-li-	.	.	4f#i	-li-
.	.	.	.	8d	-li-	.	.
=14	=14	=14	=14	=14	=14	=14	=14
2GG	-um.	1G	-um.	2B-y	-um.	1g	-um.
4B-y	Et	.	.	4d	Et	.	.
4B-y	in	.	.	4d	in	.	.
=15	=15	=15	=15	=15	=15	=15	=15
4A	u-	1r	.	4c	u-	2r	.
4A	-num	.	.	4c	-num	.	.
4G	Do-	.	.	4d	Do-	4b-y	Et
4G	-mi-	.	.	4e	-mi-	4b-y	in
!!LO:PB:g=original
=16	=16	=16	=16	=16	=16	=16	=16
2D	-num	1r	.	4f	-num	4a	u-
.	.	.	.	4d	Je-	4a	-num
4r	.	.	.	4e	-sum	4g	Do-
4G	Je-	.	.	4e	Chri-	4g	-mi-
=17	=17	=17	=17	=17	=17	=17	=17
4F	-sum	4r	.	2f	-stum,	4d	-num
4D	Chri-	4d	Je-	.	.	4f	Je-
4E	-stum,	4c	-sum	2r	.	4g	-sum
4F	Fi-	4c	Chri-	.	.	4a	Chri-
=18	=18	=18	=18	=18	=18	=18	=18
4G	-li-	4B-y	-stum,	4r	.	4b-y	-stum,
4D	-um	4F	Fi-	4f	Fi-	4a	Fi-
2r	.	4G	-li-	4e-j	-li-	4b-y	-li-
.	.	4A	-um	4e-j	-um	4cc	-um
=19	=19	=19	=19	=19	=19	=19	=19
*	*	*	*	*col	*	*	*
*	*	*	*	*col	*	*	*
2GG	De-	2B-y	De-	4.d	De-	2dd	De-
.	.	.	.	8c	.	.	.
*	*	*	*	*Xcol	*	*	*
2AA	-i	2c	-i	2A	-i	8ccL	.
.	.	.	.	.	.	8b-y	.
.	.	.	.	.	.	8a	.
.	.	.	.	.	.	8gJ	.
=20	=20	=20	=20	=20	=20	=20	=20
4BB-y	u-	2d	u-	4r	.	4f	-i
4BB-y	-ni-	.	.	2f	u-	4b-y	u-
2F	-ge-	4c	-ni-	.	.	4a	-ni-
.	.	4A	.	4f	-ni-	[4cc	-ge-
!!LO:LB:g=original
=21	=21	=21	=21	=21	=21	=21	=21
2G	-ni-	2B-y	-ge-	4d	-ge-	4cc]	.
.	.	.	.	4e	-ni-	2b-y	-ni-
2F	-tum.	2c	-ni-	2f	-tum.	.	.
.	.	.	.	.	.	4a	.
=22	=22	=22	=22	=22	=22	=22	=22
2BB-y	Et	2B-y	-tum.	2d	Et	2b-y	-tum.
4AA	ex	2r	.	4c	ex	2r	.
4BB-y	Pa-	.	.	[4d	Pa-	.	.
=23	=23	=23	=23	=23	=23	=23	=23
2GG	-tre	1r	.	4d]	.	2dd	Et
.	.	.	.	8cL	.	.	.
.	.	.	.	8B-yJ	.	.	.
2r	.	.	.	4A	.	4cc	ex
.	.	.	.	4B-y	-tre	[4dd	Pa-
=24	=24	=24	=24	=24	=24	=24	=24
1r	.	2r	.	2G	na-	4dd]	.
.	.	.	.	.	.	8ccL	.
.	.	.	.	.	.	8b-yJ	.
.	.	4r	.	4F	.	4a	.
.	.	[4d	An-	4G	.	4b-y	-tre
=25	=25	=25	=25	=25	=25	=25	=25
2r	.	4d]	.	2E	.	2g	na-
.	.	4c	-te	.	.	.	.
4r	.	4d	om-	2D	-tum	2f	-tum.
4D	om-	8cL	.	.	.	.	.
.	.	8B-yJ	.	.	.	.	.
!!LO:LB:g=original
=26	=26	=26	=26	=26	=26	=26	=26
4F	-ni-	4A	.	1r	.	1r	.
4.G	-a	4B-y	-ni-	.	.	.	.
.	.	4G	-a	.	.	.	.
8E	.	.	.	.	.	.	.
[4F	se-	[4d	se-	.	.	.	.
=27	=27	=27	=27	=27	=27	=27	=27
4F]	.	8dL]	.	1r	.	4r	.
.	.	8cJ	.	.	.	.	.
4D	.	2B-y	-cu-	.	.	4d	De-
2C	-cu-	.	.	.	.	4e-i	-um
.	.	4A	.	.	.	4e-i	de
=28	=28	=28	=28	=28	=28	=28	=28
2BB-y	-la.	2B-y	-la.	1r	.	4d	De-
.	.	.	.	.	.	4f	.
2r	.	4r	.	.	.	8e-jL	.
.	.	.	.	.	.	8dJ	.
.	.	4G	De-	.	.	[4g	.
=29	=29	=29	=29	=29	=29	=29	=29
1r	.	4A	-um	1r	.	4g]	.
.	.	4A	de	.	.	4f#i	.
.	.	4G	De-	.	.	2g	-o,
.	.	4B-y	.	.	.	.	.
=30	=30	=30	=30	=30	=30	=30	=30
4r	.	8AL	.	1r	.	1r	.
.	.	8GJ	.	.	.	.	.
4C	Lu-	2c	.	.	.	.	.
4D	-men	.	.	.	.	.	.
4D	de	4Bni	.	.	.	.	.
!!LO:LB:g=original
=31	=31	=31	=31	=31	=31	=31	=31
4C	lu-	2c	-o,	2r	.	1r	.
4E	.	.	.	.	.	.	.
8DL	.	2r	.	4r	.	.	.
8CJ	.	.	.	.	.	.	.
[4F	-mi-	.	.	4c	De-	.	.
=32	=32	=32	=32	=32	=32	=32	=32
4F]	.	1r	.	4d	.	2r	.
4E	.	.	.	4e	.	.	.
2F	-ne,	.	.	4c	-um	4r	.
.	.	.	.	[4f	ve-	4a	De-
=33	=33	=33	=33	=33	=33	=33	=33
*lig	*	*	*	*	*	*	*
2G	.	2r	.	4f]	.	4b-y	-um
.	.	.	.	4e	.	4b-y	ve-
2F	.	2c	de	2f	-rum	4a	-rum
.	.	.	.	.	.	4cc	de
*Xlig	*	*	*	*	*	*	*
=34	=34	=34	=34	=34	=34	=34	=34
4r	.	4d	De-	4r	.	4b-y	De-
4G	de	4B-y	.	4d	de	4g	.
4F	De-	4c	-o	2f	De-	8aL	.
.	.	.	.	.	.	8g	.
4D	-o	[4d	ve-	.	.	8f	.
.	.	.	.	.	.	8eJ	.
=35	=35	=35	=35	=35	=35	=35	=35
4F	ve-	4d]	.	4f	-o	4d	-o
4G	.	8cL	.	4.d	ve-	2g	ve-
.	.	8B-yJ	.	.	.	.	.
2D	-ro.	2A	.	.	.	.	.
.	.	.	.	8cL	.	.	.
.	.	.	.	8B-y	.	4f#i	.
.	.	.	.	8AJ	.	.	.
!!LO:PB:g=original
=36	=36	=36	=36	=36	=36	=36	=36
2r	.	2G	-ro.	2B-y	-ro.	2g	-ro.
4.GG	Ge-	4B-y	Ge-	4.B-y	Ge-	4d	Ge-
.	.	4B-y	-ni-	.	.	4d	-ni-
8GG	-ni-	.	.	8B-y	-ni-	.	.
=37	=37	=37	=37	=37	=37	=37	=37
4GG	-tum,	4B-y	-tum,	4B-y	-tum,	4d	-tum,
4GG	non	4B-y	non	4B-y	non	4d	non
2C	fa-	2c	fa-	4.G	fa-	2e-i	fa-
.	.	.	.	8A	.	.	.
=38	=38	=38	=38	=38	=38	=38	=38
2GG	-ctum:	2B-y	-ctum,	2G	-ctum,	2d	-ctum,
2r	.	4d	con-	4G	con-	4b-y	con-
.	.	4d	-sub-	4G	-sub-	4b-y	-sub-
=39	=39	=39	=39	=39	=39	=39	=39
1r	.	4d	-stan-	4G	-stan-	4b-y	-stan-
.	.	4d	-ti-	4G	-ti-	4b-y	-ti-
.	.	[2d	-a-	4.G	-a-	4.b-y	-a-
.	.	.	.	8F	.	8a	.
=40	=40	=40	=40	=40	=40	=40	=40
1r	.	4d]	.	4D	-lem	4f	-lem
.	.	4B-y	-lem	2G	Pa-	2b-y	Pa-
.	.	2c	Pa-	.	.	.	.
.	.	.	.	4F	.	4a	.
!!LO:LB:g=original
=41	=41	=41	=41	=41	=41	=41	=41
2r	.	2B-y	-tri:	2G	-tri:	2b-y	-tri:
4GG	per	4G	per	4d	per	4b-y	per
4GG	quem	4G	quem	4d	quem	4b-y	quem
=42	=42	=42	=42	=42	=42	=42	=42
4.GG	om-	4.G	om-	4d	om-	4.b-y	om-
.	.	.	.	4d	-ni-	.	.
8GG	-ni-	8G	-ni-	.	.	8b-y	-ni-
4GG	-a	4G	-a	4.d	-a	4b-y	-a
[4D	fa-	[4F	fa-	.	.	[4a	fa-
.	.	.	.	8c	.	.	.
=43	=43	=43	=43	=43	=43	=43	=43
4D]	.	8FL]	.	4A	.	4a]	.
.	.	8GJ	.	.	.	.	.
4D	-cta	2A	.	2d	fa-	4f	.
2AA	.	.	.	.	.	2e	-cta
.	.	4A	-cta	4c#i	-cta	.	.
=44	=44	=44	=44	=44	=44	=44	=44
2BB-y	sunt.	2F	sunt.	2d	sunt.	2d	sunt.
4GG	Qui	2G	Qui	2r	.	2r	.
4C	.	.	.	.	.	.	.
=45	=45	=45	=45	=45	=45	=45	=45
4BB-y	pro-	4G	pro-	1r	.	1r	.
4C	-pter	4G	-pter	.	.	.	.
2GG	nos,	2G	nos,	.	.	.	.
!!LO:LB:g=original
=46	=46	=46	=46	=46	=46	=46	=46
1r	.	1r	.	4G	Ho-	2.g	Ho-
.	.	.	.	4c	.	.	.
.	.	.	.	4B-y	.	.	.
.	.	.	.	4c	-mi-	4g	-mi-
=47	=47	=47	=47	=47	=47	=47	=47
2r	.	2r	.	2G	-nes,	2g	-nes,
2C	et	2G	et	2r	.	2r	.
=48	=48	=48	=48	=48	=48	=48	=48
4BB-y	pro-	2.G	pro-	1r	.	1r	.
4C	.	.	.	.	.	.	.
2GG	-pter	.	.	.	.	.	.
.	.	4G	-pter	.	.	.	.
=49	=49	=49	=49	=49	=49	=49	=49
1r	.	1r	.	2c	no-	2g	no-
.	.	.	.	4B-y	-stram	4g	-stram
.	.	.	.	4G	sa-	4g	sa-
=50	=50	=50	=50	=50	=50	=50	=50
2r	.	2r	.	2c	-lu-	2g	-lu-
4r	.	4r	.	4G	-tem	4g	-tem
4GG	de-	4G	de-	4r	.	4r	.
!!LO:LB:g=original
=51	=51	=51	=51	=51	=51	=51	=51
2C	-scen-	2G	-scen-	1r	.	1r	.
4GG	-dit	4G	-dit	.	.	.	.
*	*edit	*	*	*	*	*	*
4BB-y	de	4G	de	.	.	.	.
=52	=52	=52	=52	=52	=52	=52	=52
2AA	ce-	2F#j	ce-	2r	.	2r	.
4GG	-lis,	4G	-lis,	4r	.	4r	.
4r	.	4r	.	4G	de-	4g	de-
=53	=53	=53	=53	=53	=53	=53	=53
1r	.	1r	.	2c	-scen-	2g	-scen-
.	.	.	.	4G	-dit	4g	-dit
.	.	.	.	4B-y	de	4g	de
=54	=54	=54	=54	=54	=54	=54	=54
2r	.	2r	.	2A	ce-	2f#j	ce-
*	*Xedit	*	*	*	*	*	*
4G	de	4G	de	4G	-lis,	4g	.
*	*	*	*	*	*edit	*	*
[4F	.	[4c	.	[4f	de	[4a	.
=55	=55	=55	=55	=55	=55	=55	=55
4F]	.	4c]	.	4f]	.	4a]	.
2BB-y	ce-	2d	ce-	4.f	ce-	2b-y	.
.	.	.	.	8d	.	.	.
4C	.	8cL	.	4e-i	.	8aL	.
.	.	8B-yJ	.	.	.	8gJ	.
=56	=56	=56	=56	=56	=56	=56	=56
1Dl	-lis.	1Al	-lis.	1dl	-lis.	1f#jl	-lis.
!!LO:PB:g=original
=57||	=57||	=57||	=57||	=57||	=57||	=57||	=57||
*>B	*>B	*>B	*>B	*>B	*>B	*>B	*>B
*M2/2	*	*M2/2	*	*M2/2	*	*M2/2	*
*omet(C|)	*	*omet(C|)	*	*omet(C|)	*	*omet(C|)	*
!!section: Et incarnatus
1BB-y	Et	1r	.	1r	.	1r	.
=58	=58	=58	=58	=58	=58	=58	=58
*	*	*	*	*	*Xedit	*	*
2AA	in-	1r	.	1F	Et	1r	.
2BB-y	-car-	.	.	.	.	.	.
=59	=59	=59	=59	=59	=59	=59	=59
2C	-na-	1r	.	2E	in-	1r	.
2AA	-tus	.	.	2F	-car-	.	.
=60	=60	=60	=60	=60	=60	=60	=60
4.GG	est	1r	.	2G	-na-	1r	.
8AA	.	.	.	.	.	.	.
4BB-y	.	.	.	2G	-tus	.	.
[4C	.	.	.	.	.	.	.
=61	=61	=61	=61	=61	=61	=61	=61
8CL]	.	1r	.	2.G	est	1r	.
8DJ	.	.	.	.	.	.	.
2E-X	.	.	.	.	.	.	.
8DL	.	.	.	8FL	.	.	.
8CJ	.	.	.	8E-iJ	.	.	.
!!LO:LB:g=original
=62	=62	=62	=62	=62	=62	=62	=62
1BB-y	.	1B-y	Et	1D	.	1r	.
=63	=63	=63	=63	=63	=63	=63	=63
2D	de	2A	in-	1r	.	1f	Et
2D	Spi-	2B-y	-car-	.	.	.	.
=64	=64	=64	=64	=64	=64	=64	=64
2C	-ri-	2c	-na-	1r	.	2e	in-
2D	-tu	2A	-tus	.	.	2f	-car-
=65	=65	=65	=65	=65	=65	=65	=65
4.GG	San-	2G	est	1r	.	2g	-na-
8AA	.	.	.	.	.	.	.
4BB-y	.	2G	de	.	.	2g	-tus
4C	.	.	.	.	.	.	.
=66	=66	=66	=66	=66	=66	=66	=66
4BB-y	.	2B-y	Spi-	1r	.	2g	est
4GG	.	.	.	.	.	.	.
2C	.	2G	-ri-	.	.	2e	de
=67	=67	=67	=67	=67	=67	=67	=67
2D	-cto,	4.F	-tu	2d	de	2f	Spi-
.	.	8G	.	.	.	.	.
4r	.	4A	.	4c	Spi-	4e	-ri-
*	*edit	*	*	*	*	*	*
[4GG	San-	[4B-y	.	[4d	-ri-	4d	-tu
!!LO:LB:g=original
=68	=68	=68	=68	=68	=68	=68	=68
8GGL]	.	4B-]	.	4d]	.	2g	San-
8AA	.	.	.	.	.	.	.
8BB-y	.	2G	San-	8cL	.	.	.
8GGJ	.	.	.	8B-yJ	.	.	.
2D	-cto	.	.	4A	.	2a	-cto
.	.	4F#i	.	4A	-tu	.	.
=69	=69	=69	=69	=69	=69	=69	=69
4r	.	2G	-cto	2G	San-	2b-y	ex
*	*Xedit	*	*	*	*	*	*
2G	ex	.	.	.	.	.	.
*	*	*lig	*	*	*	*	*
.	.	2A	ex	2D	-cto	4a	Ma-
4F#i	Ma-	.	.	.	.	[4a	-ri-
=70	=70	=70	=70	=70	=70	=70	=70
2G	-ri-	2B-y	.	4r	.	4a]	.
.	.	.	.	2d	ex	4g	-a
*	*	*Xlig	*	*	*	*	*
2D	-a	4A	Ma-	.	.	4f	.
*	*	*	*	*	*	*lig	*
.	.	4F	.	4d	Ma-	[4a	Vir-
=71	=71	=71	=71	=71	=71	=71	=71
4BB-y	Vir-	4G	-ri-	2d	-ri-	4a]	.
4GG	.	4B-y	-a	.	.	2g	.
2D	-gi-	4A	Vir-	2d	-a	.	.
*	*	*	*	*	*	*Xlig	*
.	.	4A	-gi-	.	.	4f#i	-gi-
=72	=72	=72	=72	=72	=72	=72	=72
1E-X	-ne:	1G	-ne:	2B-y	Vir-	1g	-ne:
.	.	.	.	2c	-gi-	.	.
=73	=73	=73	=73	=73	=73	=73	=73
*	*	*lig	*	*	*	*	*
2D	et	1A	et	4d	-ne:	1r	.
.	.	.	.	2f	.	.	.
2C	.	.	.	.	.	.	.
.	.	.	.	4e-i	.	.	.
!!LO:LB:g=original
=74	=74	=74	=74	=74	=74	=74	=74
2.BB-y	ho-	1B-y	.	2d	.	1f	et
.	.	.	.	[2d	et	.	.
4C	.	.	.	.	.	.	.
*	*	*Xlig	*	*	*	*	*
=75	=75	=75	=75	=75	=75	=75	=75
4D	.	1A	ho-	4d]	.	2f	ho-
4E	.	.	.	4c	.	.	.
[2F	.	.	.	4A	ho-	[2a	-mo
.	.	.	.	4B-y	-mo	.	.
=76	=76	=76	=76	=76	=76	=76	=76
2F]	.	2.F	-mo	2c	fa-	4a]	.
.	.	.	.	.	.	4g	.
2D	-mo	.	.	4d	.	4f	.
.	.	4G	.	4D	.	8eL	.
.	.	.	.	.	.	8dJ	.
=77	=77	=77	=77	=77	=77	=77	=77
*lig	*	*	*	*	*	*lig	*
2AA	fa-	2A	.	2E	.	2c	fa-
2BB-y	.	[2G	fa-	4D	.	2d	.
.	.	.	.	4d	.	.	.
*Xlig	*	*	*	*	*	*Xlig	*
=78	=78	=78	=78	=78	=78	=78	=78
4C	.	2G]	.	8cL	.	2e	-ctus
.	.	.	.	8B-y	.	.	.
4E	.	.	.	8A	.	.	.
.	.	.	.	8GJ	.	.	.
2D	-ctus	2F	-ctus	2A	-ctus	2f	.
=79	=79	=79	=79	=79	=79	=79	=79
1GGl	est.	1Gl	est.	1B-yl	est.	1dl	est.
!!LO:PB:g=original
=80||	=80||	=80||	=80||	=80||	=80||	=80||	=80||
*>C	*>C	*>C	*>C	*>C	*>C	*>C	*>C
*M2/2	*	*M2/2	*	*M2/2	*	*M2/2	*
*omet(C|)	*	*omet(C|)	*	*omet(C|)	*	*omet(C|)	*
!!section: Crucifixus
2F	Cru-	2A	Cru-	1r	.	1r	.
4F	-ci-	4A	-ci-	.	.	.	.
[4F	-fi-	[4A	-fi-	.	.	.	.
=81	=81	=81	=81	=81	=81	=81	=81
4F]	.	4A]	.	1r	.	1r	.
4F	-xus	4A	-xus	.	.	.	.
4.G	e-	4.B-y	e-	.	.	.	.
8G	-ti-	8B-y	-ti-	.	.	.	.
=82	=82	=82	=82	=82	=82	=82	=82
4D	-am	4B-y	-am	1r	.	1r	.
4E	pro	4B-y	pro	.	.	.	.
4.F	no-	4.A	no-	.	.	.	.
8D	.	8F	.	.	.	.	.
=83	=83	=83	=83	=83	=83	=83	=83
8E-iL	.	8GL	.	1r	.	1r	.
8FJ	.	8FJ	.	.	.	.	.
4D	.	2B-y	.	.	.	.	.
2C	.	.	.	.	.	.	.
.	.	4A	.	.	.	.	.
=84	=84	=84	=84	=84	=84	=84	=84
2BB-y	-bis:	2B-y	-bis:	4r	.	4r	.
.	.	.	.	4d	Sub	4b-y	Sub
2r	.	2r	.	4.d	Pon-	4.b-y	Pon-
.	.	.	.	8d	-ti-	8b-y	-ti-
!!LO:LB:g=original
=85	=85	=85	=85	=85	=85	=85	=85
1r	.	1r	.	4d	-o	4b-y	-o
.	.	.	.	4d	Pi-	4b-y	Pi-
.	.	.	.	4.f	-la-	4.a	-la-
.	.	.	.	8d	.	8f	.
=86	=86	=86	=86	=86	=86	=86	=86
1r	.	1r	.	8e-iL	.	8gL	.
.	.	.	.	8fJ	.	8fJ	.
.	.	.	.	4d	.	2b-y	.
.	.	.	.	2c	.	.	.
.	.	.	.	.	.	4a	.
=87	=87	=87	=87	=87	=87	=87	=87
2r	.	2r	.	2B-y	-to	2b-y	-to
4.BB-y	pas-	4.d	pas-	4.f	pas-	4.b-y	pas-
8BB-y	-sus	8d	-sus	8f	-sus,	8b-y	-sus,
=88	=88	=88	=88	=88	=88	=88	=88
4BB-y	et	4d	et	4f	et	4b-y	et
4BB-y	se-	4d	se-	4f	se-	4b-y	se-
4BB-y	-pul-	4d	-pul-	4f	-pul-	4b-y	-pul-
4BB-y	-tus	4d	-tus	4f	-tus	4b-y	-tus
=89	=89	=89	=89	=89	=89	=89	=89
1F	est.	1c	est.	2f	est.	1a	est.
.	.	.	.	4r	.	.	.
.	.	.	.	[4f	Et	.	.
!!LO:LB:g=original
=90	=90	=90	=90	=90	=90	=90	=90
2F	Et	2r	.	4f]	.	2a	Et
.	.	.	.	4c	re-	.	.
4C	re-	2c	Et	4c	-sur-	4g	re-
4C	-sur-	.	.	[4e-i	-re-	4g	-sur-
=91	=91	=91	=91	=91	=91	=91	=91
2E-i	-re-	4G	re-	4e-]	.	2g	-re-
.	.	4G	-sur-	4c	.	.	.
2D	-xit	2B-y	-re-	4d	-xit	2f	-xit
.	.	.	.	[4f	ter-	.	.
=92	=92	=92	=92	=92	=92	=92	=92
2F	ter-	2A	-xit	4f]	.	2a	ter-
.	.	.	.	4c	-ti-	.	.
4C	-ti-	2c	ter-	4.e-i	-a	4g	-ti-
4C	-a	.	.	.	.	4g	-a
.	.	.	.	8d	.	.	.
=93	=93	=93	=93	=93	=93	=93	=93
2E-i	di-	4G	-ti-	8cL	.	4.g	di-
.	.	.	.	8B-yJ	.	.	.
.	.	4G	-a	4c	di-	.	.
.	.	.	.	.	.	8e-j	.
4D	-e,	4B-y	di-	2d	-e,	4f	-e,
4D	se-	[4A	-e,	.	.	4f	se-
=94	=94	=94	=94	=94	=94	=94	=94
2F	-cun-	4A]	.	2c	se-	2a	-cun-
*	*	*	*edit	*	*	*	*
.	.	8GL	se-	.	.	.	.
.	.	8FJ	.	.	.	.	.
2G	-dum	2E	-cun-	2e	-cun-	4g	-dum
.	.	.	.	.	.	4g	Scri-
!!LO:LB:g=original
=95	=95	=95	=95	=95	=95	=95	=95
4F	Scri-	4D	-dum	4A	-dum	4a	-ptu-
4D	.	2d	Scri-	4A	Scri-	4f	.
2E	-ptu-	.	.	2G	-ptu-	2g	.
.	.	4c#i	-ptu-	.	.	.	.
=96	=96	=96	=96	=96	=96	=96	=96
2D	-ras.	2d	-ras.	2A	-ras.	2f	-ras.
*	*	*	*Xedit	*	*	*	*
2r	.	4B-y	Et	4f	Et	4d	Et
.	.	4B-y	a-	4f	a-	4d	a-
=97	=97	=97	=97	=97	=97	=97	=97
*	*	*col	*	*	*	*	*
1r	.	4.B-y	-scen-	2f	-scen-	8dL	-scen-
.	.	.	.	.	.	8e	.
.	.	.	.	.	.	8f	.
.	.	8A	.	.	.	8gJ	.
*	*	*Xcol	*	*	*	*	*
.	.	4F	.	4f	-dit	4a	.
.	.	4B-y	-dit	4g	in	4b-y	-dit
=98	=98	=98	=98	=98	=98	=98	=98
1r	.	4A	in	4a	ce-	4cc	in
.	.	4B-y	ce-	4d	.	2dd	ce-
.	.	2A	-lum:	2e	.	.	.
.	.	.	.	.	.	4cc#i	.
=99	=99	=99	=99	=99	=99	=99	=99
1r	.	4r	.	2d	-lum.	4dd	-lum:
.	.	4B-y	se-	.	.	4dd	se-
.	.	4.B-y	-det	2r	.	4.dd	-det
.	.	8c	ad	.	.	8cc	ad
!!LO:PB:g=original
=100	=100	=100	=100	=100	=100	=100	=100
1r	.	4d	dex-	1r	.	4b-y	dex-
.	.	4c	-te-	.	.	4a	-te-
.	.	4B-y	-ram	.	.	4g	-ram
.	.	[4c	Pa-	.	.	[4a	Pa-
=101	=101	=101	=101	=101	=101	=101	=101
2r	.	8cL]	.	1r	.	4a]	.
.	.	8B-Jy	.	.	.	.	.
.	.	4G	.	.	.	2g	.
4D	Et	2A	.	.	.	.	.
4D	i-	.	.	.	.	4f#i	.
=102	=102	=102	=102	=102	=102	=102	=102
4E-X	-te-	2G	-tris.	1r	.	1g	-tris.
4C	-rum	.	.	.	.	.	.
4BB-y	ven-	4r	.	.	.	.	.
4C	-tu-	4G	Et	.	.	.	.
=103	=103	=103	=103	=103	=103	=103	=103
4AA	-rus	4A	i-	1r	.	4r	.
4GG	est	4B-y	-te-	.	.	4d	Et
2r	.	4G	-rum	.	.	4e	i-
.	.	4A	ven-	.	.	4f	-te-
=104	=104	=104	=104	=104	=104	=104	=104
1r	.	4B-y	-tu-	1r	.	4d	-rum
.	.	4c	-rus	.	.	4e	ven-
.	.	4A	est	.	.	4f	-tu-
.	.	4G	.	.	.	4g	-rus
!!LO:LB:g=original
=105	=105	=105	=105	=105	=105	=105	=105
4C	cum	1r	.	2r	.	4e	est
4D	glo-	.	.	.	.	4d	.
4E	-ri-	.	.	4G	Cum	2r	.
4C	-a	.	.	4A	glo-	.	.
=106	=106	=106	=106	=106	=106	=106	=106
4D	ju-	1r	.	4B-y	-ri-	2r	.
4E	-di-	.	.	4G	-a	.	.
4F	-ca-	.	.	4A	ju-	4f	ju-
4D	-re	.	.	4B-y	-di-	4f	-di-
=107	=107	=107	=107	=107	=107	=107	=107
4C	vi-	2r	.	4c	-ca-	4e	-ca-
4D	.	.	.	4A	.	4f	-re
4E	-vos	4G	vi-	4G	-re	4g	vi-
4C	et	[4c	-vos	4g	vi-	4e	-vos
=108	=108	=108	=108	=108	=108	=108	=108
4.F	mor-	4c]	.	4f	-vos	4.a	et
.	.	4c	et	8cL	et	.	.
8E	.	.	.	8dJ	.	8g	.
8CL	.	2c	mor-	2e	.	8eL	.
8DJ	.	.	.	.	.	8dJ	.
[4E	.	.	.	.	.	[4g	mor-
=109	=109	=109	=109	=109	=109	=109	=109
4E]	.	4B-y	-tu-	4e	mor-	4g]	.
4F	.	4A	.	2c	.	2f	-tu-
2C	-tu-	2G	.	.	.	.	.
.	.	.	.	4c	-tu-	4e	.
!!LO:LB:g=original
=110	=110	=110	=110	=110	=110	=110	=110
*lig	*	*	*	*	*	*	*
2D	-os.	2F	-os:	2A	-os:	2f	-os:
2BB-y	.	4F	cu-	2r	.	4r	.
.	.	4D	-jus	.	.	4f	cu-
*Xlig	*	*	*	*	*	*	*
=111	=111	=111	=111	=111	=111	=111	=111
1r	.	4.F	re-	1r	.	4d	-jus
.	.	.	.	.	.	2f	re-
.	.	8G	.	.	.	.	.
.	.	4A	.	.	.	.	.
.	.	[4B-y	.	.	.	8e-iL	.
.	.	.	.	.	.	8dJ	.
=112	=112	=112	=112	=112	=112	=112	=112
1r	.	4B-]	.	1r	.	2c	.
.	.	4A	.	.	.	.	.
.	.	2B-y	-gni.	.	.	2B-y	-gni
=113	=113	=113	=113	=113	=113	=113	=113
1r	.	1r	.	4r	.	4f	non
.	.	.	.	4f	non	4d	e-
.	.	.	.	4d	e-	4.f	-rit
.	.	.	.	[4f	-rit	.	.
.	.	.	.	.	.	8g	.
=114	=114	=114	=114	=114	=114	=114	=114
1r	.	1r	.	4f]	.	4a	.
.	.	.	.	8e-iL	.	2b-y	fi-
.	.	.	.	8dJ	.	.	.
.	.	.	.	2c	fi-	.	.
.	.	.	.	.	.	4a	.
!!LO:LB:g=original
=115	=115	=115	=115	=115	=115	=115	=115
2.BB-y	Et	2.F	Et	2B-y	-nis.	2b-y	-nis.
.	.	.	.	4r	.	4f	Et
4BB-y	in	4F	in	4f	Et	4d	in
=116	=116	=116	=116	=116	=116	=116	=116
4.BB-y	Spi-	4.F	Spi-	4d	in	4f	Spi-
.	.	.	.	4f	Spi-	4d	-ri-
8BB-y	-ri-	8F	-ri-	.	.	.	.
2BB-y	-tum	2F	-tum	4d	-ri-	2B-y	-tum
.	.	.	.	[4B-y	-tum	.	.
=117	=117	=117	=117	=117	=117	=117	=117
4BB-y	San-	4F	San-	4B-]	.	4f	San-
4BB-y	-ctum,	4F	-ctum,	4f	San-	4d	-ctum,
4.BB-y	Do-	4.F	Do-	4d	-ctum,	4f	Do-
.	.	.	.	4f	Do-	4d	-mi-
8BB-y	-mi-	8F	-mi-	.	.	.	.
=118	=118	=118	=118	=118	=118	=118	=118
1BB-y	-num	2F	-num	4d	-mi-	4.B-y	-num,
.	.	.	.	4.B-y	-num	.	.
.	.	.	.	.	.	8c	.
.	.	2B-y	et	.	.	2d	.
.	.	.	.	8A	.	.	.
.	.	.	.	[4F	.	.	.
=119	=119	=119	=119	=119	=119	=119	=119
4F	et	4A	vi-	4F]	.	4r	.
4D	vi-	4d	-vi-	4f	et	4a	et
4F	-vi-	4c	-fi-	4f	vi-	4a	vi-
4BB-y	-fi-	[4d	-can-	[4f	-vi-	4b-y	-vi-
!!LO:PB:g=original
=120	=120	=120	=120	=120	=120	=120	=120
4F	-can-	4d]	.	4f]	.	4a	-fi-
4G	.	8cL	.	4d	-fi-	2g	-can-
.	.	8B-yJ	.	.	.	.	.
2D	.	2A	.	2d	-can-	.	.
.	.	.	.	.	.	4f#i	.
=121	=121	=121	=121	=121	=121	=121	=121
1GG	-tem.	2G	-tem:	2B-y	-tem.	1g	-tem:
.	.	4r	.	2r	.	.	.
.	.	4B-y	qui	.	.	.	.
=122	=122	=122	=122	=122	=122	=122	=122
1r	.	4B-y	ex	1r	.	4g	qui
.	.	2B-y	Pa-	.	.	4g	ex
.	.	.	.	.	.	2g	Pa-
.	.	4B-y	-tre	.	.	.	.
=123	=123	=123	=123	=123	=123	=123	=123
1r	.	2c	Fi-	1r	.	4g	-tre
.	.	.	.	.	.	2a	Fi-
.	.	4c	-li-	.	.	.	.
.	.	[4d	-o-	.	.	4f	-li-
=124	=124	=124	=124	=124	=124	=124	=124
1r	.	8dL]	.	1r	.	4f	-o-
.	.	8c	.	.	.	.	.
.	.	8B-y	.	.	.	4g	-que
.	.	8AJ	.	.	.	.	.
.	.	4G	.	.	.	4e	pro-
.	.	4F	-que	.	.	4f	.
!!LO:LB:g=original
=125	=125	=125	=125	=125	=125	=125	=125
1r	.	2G	pro-	1r	.	4d	.
.	.	.	.	.	.	2g	-ce-
.	.	2A	-ce-	.	.	.	.
.	.	.	.	.	.	4f#i	.
=126	=126	=126	=126	=126	=126	=126	=126
2r	.	1G	-dit.	2r	.	1g	-dit.
4G	Qui	.	.	4d	Qui	.	.
4G	cum	.	.	4d	cum	.	.
=127	=127	=127	=127	=127	=127	=127	=127
2B-y	Pa-	1r	.	2d	Pa-	1r	.
4G	-tre	.	.	4d	-tre	.	.
4D	et	.	.	4d	et	.	.
=128	=128	=128	=128	=128	=128	=128	=128
4F	Fi-	1r	.	4c	Fi-	1r	.
4G	-li-	.	.	4B-y	-li-	.	.
4D	-o	.	.	2A	-o	.	.
[4F	si-	.	.	.	.	.	.
=129	=129	=129	=129	=129	=129	=129	=129
4F]	.	1r	.	2c	si-	1r	.
4F	-mul	.	.	.	.	.	.
4F	ad-	.	.	4c	-mul	.	.
4F	-o-	.	.	4c	ad-	.	.
!!LO:LB:g=original
=130	=130	=130	=130	=130	=130	=130	=130
8FL	-ra-	1r	.	4c	-o-	1r	.
8E-j	.	.	.	.	.	.	.
8D	.	.	.	4.d	-ra-	.	.
8CJ	.	.	.	.	.	.	.
2BB-y	.	.	.	.	.	.	.
.	.	.	.	8cL	.	.	.
.	.	.	.	8B-y	.	.	.
.	.	.	.	8AJ	.	.	.
=131	=131	=131	=131	=131	=131	=131	=131
4E-i	.	1r	.	8GL	.	1r	.
.	.	.	.	8FJ	.	.	.
4D	.	.	.	2B-y	.	.	.
2C	.	.	.	.	.	.	.
.	.	.	.	4A	.	.	.
=132	=132	=132	=132	=132	=132	=132	=132
2BB-y	-tur.	4r	.	2B-y	-tur:	4r	.
.	.	4d	Et	.	.	4b-y	Et
2r	.	4d	con-	2r	.	4b-y	con-
.	.	4d	-glo-	.	.	4b-y	-glo-
=133	=133	=133	=133	=133	=133	=133	=133
1r	.	4d	-ri-	1r	.	4b-y	-ri-
.	.	4d	-fi-	.	.	4b-y	-fi-
.	.	4G	-ca-	.	.	4.b-y	-ca-
.	.	8FL	.	.	.	.	.
.	.	8EJ	.	.	.	8a	.
=134	=134	=134	=134	=134	=134	=134	=134
1r	.	2D	.	1r	.	8fL	.
.	.	.	.	.	.	8eJ	.
*	*	*	*	*	*	*lig	*
.	.	.	.	.	.	2a	.
.	.	4F	.	.	.	.	.
.	.	4G	.	.	.	[4g	.
!!LO:LB:g=original
=135	=135	=135	=135	=135	=135	=135	=135
1r	.	2A	.	1r	.	4g]	.
*	*	*	*	*	*	*Xlig	*
.	.	.	.	.	.	4f#i	.
.	.	2G	-tur.	.	.	2g	-tur:
=136	=136	=136	=136	=136	=136	=136	=136
1r	.	1r	.	4B-y	qui	4g	qui
.	.	.	.	4c	lo-	4a	lo-
.	.	.	.	4d	-cu-	4b-y	-cu-
.	.	.	.	4e	-tus	4cc	-tus
=137	=137	=137	=137	=137	=137	=137	=137
1r	.	1r	.	8fL	est	4a	est
.	.	.	.	8e	.	.	.
.	.	.	.	8d	.	2dd	per
.	.	.	.	8cJ	.	.	.
.	.	.	.	4B-y	.	.	.
.	.	.	.	4d	per	4b-y	Pro-
=138	=138	=138	=138	=138	=138	=138	=138
1r	.	1r	.	4e	Pro-	8ccL	-phe-
.	.	.	.	.	.	8b-y	.
.	.	.	.	2g	-phe-	8a	.
.	.	.	.	.	.	8gJ	.
.	.	.	.	.	.	2a	.
.	.	.	.	4f#i	.	.	.
=139	=139	=139	=139	=139	=139	=139	=139
4r	.	4r	.	2g	-tas.	2g	-tas.
4GG	Et	4G	Et	.	.	.	.
4GG	u-	4G	u-	2r	.	2r	.
4GG	-nam	4G	-nam	.	.	.	.
!!LO:PB:g=original
=140	=140	=140	=140	=140	=140	=140	=140
2BB-y	san-	4F	san-	1r	.	1r	.
.	.	4G	-ctam	.	.	.	.
4D	-ctam	4F	ca-	.	.	.	.
4E-i	ca-	[4B-y	-tho-	.	.	.	.
=141	=141	=141	=141	=141	=141	=141	=141
4C	-tho-	4B-]	.	2r	.	2r	.
4C	-li-	4A	-li-	.	.	.	.
2BB-y	-cam.	2B-y	-cam.	4r	.	4r	.
.	.	.	.	4d	Et	4b-y	Et
=142	=142	=142	=142	=142	=142	=142	=142
1r	.	1r	.	4d	a-	4b-y	a-
.	.	.	.	4d	-po-	4b-y	-po-
.	.	.	.	4.d	-sto-	4.b-y	-sto-
.	.	.	.	8d	-li-	8a	-li-
=143	=143	=143	=143	=143	=143	=143	=143
1r	.	1r	.	8e-iL	-cam-	2g	-cam
.	.	.	.	8d	.	.	.
.	.	.	.	8c	.	.	.
.	.	.	.	8B-yJ	.	.	.
.	.	.	.	4A	.	4f	Ec-
.	.	.	.	4G	-Ec-	[4g	-cle-
=144	=144	=144	=144	=144	=144	=144	=144
1r	.	1r	.	2B-y	-cle-	8gL]	.
.	.	.	.	.	.	8fJ	.
.	.	.	.	.	.	2b-y	.
.	.	.	.	2c	-si-	.	.
.	.	.	.	.	.	4a	-si-
!!LO:LB:g=original
=145	=145	=145	=145	=145	=145	=145	=145
*M3/2	*	*M3/2	*	*M3/2	*	*M3/2	*
*omet(O)	*	*omet(O)	*	*omet(O)	*	*omet(O)	*
!!LO:TX:a:t=[C |3]
!!LO:TX:t=[whole]=[whole-dot]
2r	.	2r	.	1B-y	-am.	1b-y	-am.
2r	.	2r	.	.	.	.	.
2BB-y	Con-	2d	Con-	2f	Con-	2b-y	Con-
=146	=146	=146	=146	=146	=146	=146	=146
1BB-y	-fi-	1d	-fi-	1f	-fi-	1b-y	-fi-
2BB-y	-te-	2d	-te-	2f	-te-	2b-y	-te-
=147	=147	=147	=147	=147	=147	=147	=147
1F	-or	1c	-or	1f	-or	1a	-or
2E	u-	2c	u-	2g	u-	2g	u-
=148	=148	=148	=148	=148	=148	=148	=148
*col	*	*	*	*	*	*	*
2F	-num	1.c	-num	2f	-num	2a	-num
2C	ba-	.	.	2e	ba-	2.g	ba-
[2F	-pti-	.	.	2f	-pti-	.	.
.	.	.	.	.	.	4f	.
=149	=149	=149	=149	=149	=149	=149	=149
*	*	*col	*	*	*	*	*
2F]	.	2A	ba-	1.c	-sma	1f	-pti-
1C	-sma	1G	-pti-	.	.	.	.
*Xcol	*	*Xcol	*	*	*	*	*
.	.	.	.	.	.	2e	.
=150	=150	=150	=150	=150	=150	=150	=150
1D	in	1F	-sma	1A	in	1f	-sma
2C	re-	2r	.	2c	re-	2r	.
!!LO:LB:g=original
=151	=151	=151	=151	=151	=151	=151	=151
1BB-y	-mis-	1D	in	1d	-mis-	1.r	.
2AA	-si-	2F	re-	2c	-si-	.	.
=152	=152	=152	=152	=152	=152	=152	=152
1GG	-o-	1G	-mis-	1B-y	-o-	1d	in
2D	-nem	2A	-si-	2A	-nem	2f	re-
=153	=153	=153	=153	=153	=153	=153	=153
*lig	*	*	*	*	*	*	*
2BB-y	pec-	1B-y	-o-	2G	pec-	1g	-mis-
2GG	.	.	.	1d	-ca-	.	.
*Xlig	*	*	*	*	*	*	*
2D	-ca-	2A	-nem	.	.	2a	-si-
=154	=154	=154	=154	=154	=154	=154	=154
1GG	-to-	1G	pec-	4B-y	-to-	1b-y	-o-
.	.	.	.	4c	.	.	.
.	.	.	.	4d	.	.	.
.	.	.	.	4e-j	.	.	.
2D	.	2F	-ca-	2f	.	2a	-nem
=155	=155	=155	=155	=155	=155	=155	=155
4.E-j	.	4G	-to-	2e-j	.	1g	pec-
.	.	4A	.	.	.	.	.
8F	.	.	.	.	.	.	.
4G	.	4B-y	.	4d	.	.	.
4C	.	4c	.	4e-j	.	.	.
2D	.	2A	.	2d	.	2f#j	-ca-
=156	=156	=156	=156	=156	=156	=156	=156
1GG	-rum.	1G	-rum.	1B-y	-rum.	4g	-to-
.	.	.	.	.	.	4a	.
.	.	.	.	.	.	4b-y	.
.	.	.	.	.	.	4cc	.
2r	.	2c	Et	2r	.	2a	.
!!LO:LB:g=original
=157	=157	=157	=157	=157	=157	=157	=157
*	*	*lig	*	*	*	*	*
1.r	.	2B-y	ex-	2d	Et	1g	-rum.
.	.	2G	.	2e	ex-	.	.
*	*	*Xlig	*	*	*	*	*
.	.	2A	-spe-	2f	-spe-	2cc	Et
=158	=158	=158	=158	=158	=158	=158	=158
*	*	*	*	*	*	*lig	*
1.r	.	1G	-cto	4g	-cto	2b-y	ex-
.	.	.	.	4d	.	.	.
.	.	.	.	2e	re-	2g	.
*	*	*	*	*	*	*Xlig	*
.	.	2r	.	2f	-sur-	2a	-spe-
=159	=159	=159	=159	=159	=159	=159	=159
1.r	.	1.r	.	2g	-re-	2g	-cto
.	.	.	.	2f	-cti-	2d	re-
.	.	.	.	2g	-o-	2e	-sur-
=160	=160	=160	=160	=160	=160	=160	=160
1.r	.	1.r	.	2d	-nem	2f	-re-
.	.	.	.	4B-y	mor-	2g	-cti-
.	.	.	.	4c	-tu-	.	.
.	.	.	.	2A	-o-	2f#i	-o-
=161	=161	=161	=161	=161	=161	=161	=161
*	*	*	*	*	*	*col	*
*	*	*	*	*col	*	*	*
*	*	*col	*	*	*	*	*
*col	*	*	*	*	*	*	*
1GG	mor-	1B-y	mor-	1G	-rum.	1g	-nem
[2C	-tu-	[2c	-tu-	2r	.	2g	mor-
=162	=162	=162	=162	=162	=162	=162	=162
2C]	.	2c]	.	2r	.	2g	-tu-
1E-i	-o-	1c	-o-	1G	Et	1g	-o-
*Xcol	*	*Xcol	*	*Xcol	*	*Xcol	*
!!LO:PB:g=original
=163	=163	=163	=163	=163	=163	=163	=163
1D	-rum.	1d	-rum.	1A	vi-	1f	-rum.
2D	Et	2d	Et	2F	-tam	2f	Et
=164	=164	=164	=164	=164	=164	=164	=164
*	*	*	*	*col	*	*	*
*	*	*col	*	*	*	*	*
1D	vi-	1d	vi-	1f	ven-	1a	vi-
2F	-tam	2c	-tam	[2f	-tu-	2a	-tam
=165	=165	=165	=165	=165	=165	=165	=165
2F	ven-	2c	ven-	2f]	.	2a	ven-
1G	-tu-	1B-y	-tu-	1d	-ri	2b-y	-tu-
*	*	*Xcol	*	*	*	*	*
.	.	.	.	.	.	2b-y	-ri
=166	=166	=166	=166	=166	=166	=166	=166
*	*	*	*	*	*	*lig	*
*col	*	*	*	*	*	*	*
1F	-ri	1c	-ri	1.f	se-	2a	se-
.	.	.	.	.	.	2.cc	.
[2BB-y	se-	2d	se-	.	.	.	.
*	*	*	*	*	*	*Xlig	*
.	.	.	.	.	.	4b-y	.
=167	=167	=167	=167	=167	=167	=167	=167
2BB-]	.	2B-y	.	2f	-cu-	1b-y	-cu-
1F	-cu-	1c	-cu-	1f	-li.	.	.
*	*	*	*	*Xcol	*	*	*
.	.	.	.	.	.	2a	.
=168	=168	=168	=168	=168	=168	=168	=168
1BB-y	-li.	1B-y	-li.	2.d	A-	1b-y	-li.
.	.	.	.	4e-i	.	.	.
2D	.	2A	.	2f	.	2r	.
*Xcol	*	*	*	*	*	*	*
!!LO:LB:g=original
=169	=169	=169	=169	=169	=169	=169	=169
2.E-X	A-	1G	A-	1g	.	1b-y	A-
4D	.	.	.	.	.	.	.
2C	.	2A	.	2e-i	.	2cc	.
=170	=170	=170	=170	=170	=170	=170	=170
*	*	*lig	*	*lig	*	*	*
*	*	*col	*	*	*	*	*
1G	.	1B-y	.	2d	.	2.dd	.
.	.	.	.	2.g	.	.	.
.	.	.	.	.	.	4cc	.
2GG	.	[2G	.	.	.	4b-y	.
*	*	*Xlig	*	*Xlig	*	*	*
.	.	.	.	4f	.	4a	.
=171	=171	=171	=171	=171	=171	=171	=171
*	*	*	*	*	*	*lig	*
2BB-y	.	2G]	.	4e	.	2g	.
*	*	*Xlig	*	*	*	*	*
.	.	.	.	4d	.	.	.
1AA	.	2.A	.	2.c	.	2.cc	.
*	*	*	*	*	*	*Xlig	*
.	.	4B-y	.	4d	.	4b-y	.
=172	=172	=172	=172	=172	=172	=172	=172
*	*	*lig	*	*	*	*	*
2AA	.	2c	.	2e	.	4a	.
.	.	.	.	.	.	4g	.
1D	.	2A	.	2d	.	2.f	.
*	*	*Xlig	*	*	*	*	*
*	*	*	*	*col	*	*	*
.	.	[2d	.	[2f	.	.	.
.	.	.	.	.	.	4g	.
=173	=173	=173	=173	=173	=173	=173	=173
*	*	*	*	*	*	*lig	*
2D	.	1d]	.	2f]	.	2a	.
2GG	.	.	.	1g	.	2.b-y	.
*	*	*lig	*	*	*	*	*
2G	.	2B-y	.	.	.	.	.
*	*	*	*	*	*	*Xlig	*
.	.	.	.	.	.	4a	.
=174	=174	=174	=174	=174	=174	=174	=174
2C	.	2c	.	2e-j	.	1g	.
*	*	*Xlig	*	*	*	*	*
*	*	*	*	*col	*	*	*
1D	.	1A	.	1d	.	.	.
*	*	*Xcol	*	*Xcol	*	*	*
.	.	.	.	.	.	2f#i	.
=175	=175	=175	=175	=175	=175	=175	=175
1GGl	-men.	1Gl	-men.	1dl	-men.	1gl	-men.
==	==	==	==	==	==	==	==
*-	*-	*-	*-	*-	*-	*-	*-
!!!system-decoration: [*]
!!!RDF**kern: j = editorial accidental, optional, paren up
!!!RDF**kern: i = editorial accidental
!!!RDF**kern: l = terminal long
!!!PTL: Gaspar van Weerbeke: Collected Works. II. Masses, Part 2
!!!PPR: American Institute of Musicology
!!!PC#: Corpus Mensurabilis Musicae 106/II.2
!!!PDT: 2018
!!!PED: Kolb, Paul
!!!YEC: Copyright 2016, Kolb, Paul
!!!YEM: CC-BY-NC 4.0 (https://creativecommons.org/licenses/by-nc/4.0/legalcode)
!!!EED: Zybina, Karina
!!!EEV: 2021/11/29
!!!title: @{OPR} &mdash; @{OTL}
!!!muse2ps: C^@{COM}^i2I150v90,90,90,120c122z18l2700t130
